P2
# MBIL synthetic grayscale elevation grid. Simulation-only.
96 64
255
194 192 190 188 186 192 207 213 206 188 169 166 162 158 158 162 181 191 188 171 149 145 139 133 127 119 131 137 131 117 95 90 88 86 84 82 95 108 109 97 76 66 62 61 62 62 73 89 93 83 62 45 39 32 24 16 15 25 32 29 15 0 1 2 3 4 8 29 41 41 29 10 12 16 21 24 27 47 61 62 49 27 20 15 10 5 0 13 28 32 24 7 0 0 1 3
195 193 191 188 186 184 202 212 210 195 172 166 163 161 162 162 178 191 191 179 156 145 139 132 125 117 122 130 133 123 104 91 89 86 84 82 88 104 110 103 84 66 64 65 66 65 68 86 93 88 69 44 38 30 22 14 5 20 31 32 22 3 1 2 4 5 6 23 39 44 35 17 15 20 24 27 29 41 58 63 54 34 18 13 8 2 0 6 24 33 29 15 0 1 2 3
200 193 191 189 187 184 196 209 211 201 180 167 164 165 165 165 173 188 193 184 164 144 137 130 122 115 111 125 133 128 111 91 89 87 85 83 81 99 108 106 91 68 68 68 69 68 67 81 92 90 75 49 36 28 20 11 4 13 28 34 28 11 2 3 4 5 6 16 35 44 40 29 19 23 27 29 30 35 53 62 57 39 16 11 5 0 0 0 18 31 33 22 3 1 2 4
209 194 191 189 187 185 189 205 211 205 188 167 168 168 168 167 167 185 193 188 170 144 136 128 120 112 105 119 131 131 118 97 89 87 85 83 81 92 106 108 97 79 71 72 72 71 68 75 88 90 79 56 34 26 17 8 5 6 23 34 32 19 2 3 5 6 7 9 30 43 46 39 24 26 29 31 32 31 47 59 58 44 20 8 3 0 0 0 12 28 34 28 11 2 3 4
216 194 192 190 188 185 183 199 210 209 195 174 171 171 171 170 168 179 190 189 175 150 134 126 118 109 105 113 127 132 123 105 90 88 86 84 81 85 101 108 103 90 75 75 74 73 70 68 82 88 81 61 32 23 14 9 5 2 18 32 35 26 8 4 5 6 7 9 23 40 51 48 35 29 31 33 33 32 39 53 57 46 25 6 2 1 0 0 5 24 34 32 19 2 3 5
222 202 192 190 188 186 184 192 206 210 201 186 175 175 174 172 169 172 186 189 178 156 132 123 115 109 106 106 122 131 128 112 90 88 86 84 82 80 96 106 110 100 82 78 76 74 71 66 75 84 81 65 38 21 13 9 6 2 11 28 36 31 16 4 6 7 8 9 16 39 54 56 45 31 33 34 33 32 30 46 53 48 29 3 2 1 1 0 0 18 32 35 26 8 4 5
228 210 193 191 189 186 184 185 202 210 209 196 178 177 176 174 170 166 180 186 180 160 132 121 113 110 106 103 116 129 130 119 98 89 87 85 82 80 89 106 114 109 92 80 78 75 71 66 67 78 79 67 43 18 14 10 6 3 4 24 35 35 23 5 6 7 8 10 12 37 55 61 54 37 35 35 33 31 27 38 48 47 32 12 3 2 1 1 1 11 29 36 31 16 4 6
231 217 195 191 189 187 185 182 196 210 214 206 187 180 178 175 171 166 172 181 179 164 138 118 114 110 107 104 109 125 131 124 106 89 87 85 83 81 83 104 117 116 102 82 80 76 72 66 59 71 75 67 47 21 14 10 7 3 1 18 33 38 30 13 7 8 9 10 16 33 55 65 61 46 36 35 33 30 26 28 41 44 36 20 3 2 2 1 1 4 24 36 35 23 5 6
233 223 204 192 190 188 185 183 190 209 218 214 197 182 180 176 171 165 163 174 176 165 142 118 114 111 107 104 102 119 129 128 113 92 88 86 83 81 83 101 117 121 110 90 81 77 71 65 57 62 69 66 51 29 15 11 7 4 2 11 29 38 35 21 7 8 10 14 19 29 52 67 67 55 36 35 32 29 24 19 33 40 39 27 6 3 2 2 2 2 18 34 38 30 12 7
233 228 211 192 190 188 186 183 186 207 220 220 206 184 181 176 171 164 157 166 172 165 147 124 115 111 108 105 102 113 127 129 120 100 88 86 84 84 86 98 116 123 117 99 81 77 70 63 55 52 62 62 55 37 15 11 8 4 2 3 24 37 39 28 9 9 12 17 23 28 49 66 71 62 42 34 31 27 22 16 23 37 41 33 14 3 3 2 2 2 11 30 39 35 20 7
232 231 218 197 191 189 186 186 188 204 220 224 214 194 181 176 170 163 155 157 165 163 152 132 115 112 108 105 103 106 122 130 124 108 89 87 86 88 90 93 113 124 122 106 82 76 69 62 53 44 53 60 58 44 21 12 8 5 3 3 18 34 40 34 17 9 15 21 26 30 44 63 72 67 49 33 29 25 19 14 14 32 41 37 22 4 3 3 3 3 4 24 38 39 28 12
228 233 224 205 191 189 187 190 191 199 218 226 220 202 181 176 169 161 153 147 157 162 156 139 116 112 109 106 103 100 117 128 127 115 93 87 89 91 93 94 109 123 125 113 90 75 68 60 51 42 44 57 59 49 29 12 9 5 3 4 11 30 41 39 25 13 19 24 29 33 38 59 71 70 55 32 28 23 17 11 10 26 39 40 29 9 4 3 3 3 4 18 35 41 36 24
223 232 228 213 192 190 191 193 194 195 214 226 224 209 184 175 167 159 150 141 149 159 159 146 124 113 109 106 104 101 110 125 129 120 101 90 93 95 96 96 103 119 125 117 96 74 66 57 48 39 37 52 59 53 36 13 9 6 4 4 5 25 39 42 34 20 22 27 32 35 37 53 68 71 60 38 25 20 14 11 10 20 36 41 35 17 4 4 4 4 4 11 30 41 44 35
217 230 231 219 199 192 195 196 197 198 209 223 226 214 191 173 166 157 148 139 142 155 159 151 132 113 110 107 104 101 103 120 128 125 110 94 96 98 99 98 97 114 123 119 102 75 64 55 46 39 34 46 56 56 43 20 10 6 4 5 5 18 36 43 42 31 25 30 34 37 38 46 63 70 63 44 23 17 13 12 11 12 31 41 39 25 5 4 4 4 5 5 25 42 50 44
211 226 232 225 207 196 198 199 200 200 203 219 225 217 197 172 163 154 145 138 134 150 158 154 139 115 110 107 104 102 99 114 126 127 120 104 99 101 101 100 98 108 119 119 105 80 61 52 44 40 35 39 52 56 48 28 10 7 5 5 6 11 31 46 50 42 28 32 36 38 39 38 56 67 64 48 23 15 14 12 11 10 25 38 41 31 12 5 5 5 5 6 20 42 54 53
203 221 231 228 218 200 201 202 202 201 199 213 222 219 202 175 161 152 143 139 134 143 155 156 145 124 111 108 105 102 100 107 123 131 128 114 102 103 103 101 99 100 114 117 107 85 59 50 45 40 35 32 47 55 51 35 12 7 5 6 6 7 26 47 55 51 37 34 37 38 39 38 48 61 63 51 28 15 14 13 12 10 18 34 42 36 20 5 5 5 5 6 16 40 56 59
202 215 228 233 227 211 204 205 204 202 200 206 218 218 205 180 158 149 144 139 135 136 151 156 149 131 111 108 105 103 100 100 118 133 135 124 105 105 104 102 99 94 106 113 108 89 61 49 45 40 36 31 41 52 53 42 20 7 6 6 7 8 23 46 59 58 46 36 38 39 38 37 39 54 60 52 34 15 14 13 12 11 10 29 40 40 27 7 5 5 6 10 15 37 57 64
202 208 224 236 235 221 207 207 206 203 200 197 211 215 206 184 156 149 144 139 135 131 145 155 152 138 116 109 106 103 101 98 115 133 140 133 115 107 105 102 98 93 97 107 106 91 67 50 45 41 36 32 33 48 53 46 28 8 6 6 7 11 18 43 60 64 55 37 38 38 37 35 32 46 55 52 41 21 15 14 12 11 10 23 38 42 33 15 6 6 8 13 18 33 55 66
203 201 222 237 241 231 212 208 206 203 199 194 203 210 205 188 161 149 144 140 135 131 138 151 154 144 124 109 106 103 101 101 111 132 142 139 124 108 105 102 97 91 87 99 102 92 74 50 46 41 36 32 28 42 51 49 35 12 6 7 9 14 20 40 60 68 62 46 38 38 36 33 29 36 48 53 46 29 15 14 13 11 10 16 33 42 38 23 6 6 11 16 21 28 51 66
203 203 218 237 245 238 221 209 207 203 198 192 193 203 203 189 169 149 145 140 136 131 131 146 153 148 131 109 106 104 102 105 107 129 143 144 132 111 105 101 96 90 82 90 96 94 80 58 46 41 37 32 28 35 48 50 40 20 7 7 12 18 23 35 57 69 67 53 38 36 34 31 27 25 41 52 50 36 15 14 13 12 11 9 27 40 41 30 10 10 15 20 24 28 46 64
204 207 214 235 246 244 230 210 207 202 197 190 183 195 198 192 176 151 145 140 136 131 127 140 151 150 137 116 107 104 106 108 110 124 141 147 138 119 105 100 94 87 80 80 90 94 85 65 46 42 37 33 28 28 43 50 44 27 7 10 15 21 25 30 53 68 71 60 39 35 32 28 24 19 35 49 52 42 23 14 13 12 11 10 21 36 42 35 20 13 18 22 26 30 40 60
207 210 212 231 246 248 237 215 206 201 195 188 180 185 193 194 181 159 145 141 136 132 127 133 147 151 142 123 107 107 109 111 113 119 138 147 143 126 104 98 92 85 77 69 85 93 89 72 48 42 37 33 28 24 37 47 47 34 14 13 19 23 28 31 47 65 72 64 45 33 30 26 21 19 28 45 53 47 30 15 13 12 11 10 13 31 41 39 30 16 21 25 28 31 33 54
211 213 215 226 244 250 242 222 205 200 193 185 177 175 188 193 186 167 145 141 136 132 128 125 141 150 146 130 108 110 112 114 115 115 133 145 145 131 107 96 90 82 74 68 78 90 90 78 56 42 37 33 29 24 30 43 47 39 25 17 21 26 30 33 40 60 70 67 51 30 27 23 20 20 20 40 51 50 37 16 14 12 11 10 9 25 39 45 39 25 23 27 30 32 33 47
214 216 217 220 239 249 245 229 204 198 191 183 174 168 182 191 189 173 149 141 136 132 128 124 135 147 148 136 119 113 115 116 117 117 126 141 145 135 113 94 87 79 72 68 71 85 90 83 63 42 38 33 29 24 22 38 46 45 35 20 24 28 31 34 35 53 67 68 55 33 24 20 20 20 19 33 48 52 43 24 14 13 11 10 9 18 37 48 47 35 26 29 31 32 33 38
217 218 219 219 234 246 247 233 209 195 188 180 172 168 175 188 190 179 157 141 137 132 128 124 127 142 148 143 130 116 118 118 118 118 119 136 143 137 118 91 84 76 72 68 64 79 88 85 70 46 38 33 29 25 20 31 44 50 44 30 26 30 32 34 35 45 61 66 57 37 21 20 20 20 20 25 43 52 47 32 14 13 11 10 9 11 34 50 54 45 28 30 31 32 32 31
219 220 220 220 226 241 246 236 214 193 185 177 172 168 168 183 189 182 164 141 137 132 128 124 120 136 147 149 140 122 120 120 120 118 116 128 138 137 121 96 81 75 72 68 64 72 84 86 75 54 38 33 29 25 20 24 43 53 51 40 28 31 33 34 34 36 54 63 58 41 19 20 20 20 20 19 37 50 50 38 18 13 12 10 9 12 31 50 58 52 37 31 32 32 31 29
221 222 222 220 218 235 242 237 219 191 182 176 172 168 164 176 186 185 170 147 137 132 128 124 120 129 146 154 148 132 122 121 120 118 115 119 132 134 123 100 79 76 72 68 64 64 79 86 79 61 38 33 29 25 20 19 40 54 57 49 32 32 33 33 33 31 45 57 57 44 26 20 20 20 20 19 30 46 51 43 25 13 12 10 11 15 26 48 60 58 45 31 31 31 29 27
223 223 222 220 217 226 237 236 221 196 179 176 172 168 164 169 182 185 175 155 137 132 128 124 120 124 144 156 154 141 123 122 120 117 114 110 124 130 123 104 80 75 72 68 64 60 73 83 81 67 44 33 29 25 22 22 36 53 60 56 41 32 33 32 31 29 35 50 54 49 34 20 20 20 20 19 23 41 50 47 32 13 12 10 14 18 21 44 60 63 52 33 30 29 27 25
225 224 222 219 216 217 230 233 223 200 179 176 172 168 164 161 176 184 179 162 137 132 128 124 121 122 141 156 159 149 129 122 120 116 112 107 114 124 121 109 88 75 72 68 64 60 66 79 82 72 51 33 29 25 25 25 31 50 61 61 48 32 32 31 29 27 24 41 51 52 40 21 20 20 19 19 18 34 48 49 39 19 11 13 17 20 24 39 58 64 58 40 29 27 25 22
226 224 222 218 214 209 221 228 222 205 183 175 172 168 163 159 169 180 180 167 145 132 128 124 124 125 136 154 161 155 137 122 119 115 110 104 104 116 119 113 95 75 72 68 64 60 58 73 80 75 58 33 29 27 28 28 28 46 60 64 55 36 30 29 26 24 20 31 47 53 46 29 20 20 19 19 18 27 43 50 43 26 13 16 20 23 26 33 53 64 61 46 27 25 22 19
233 224 221 217 212 206 211 221 220 211 190 175 172 168 163 159 162 176 180 172 152 132 128 126 127 128 131 151 161 159 144 121 118 113 107 101 94 106 116 115 101 79 72 68 64 60 56 66 77 77 64 41 30 30 30 30 30 40 57 65 59 42 28 26 24 21 17 23 42 53 50 36 20 19 19 19 18 19 38 48 47 33 16 19 22 25 27 29 47 61 63 51 29 22 19 15
241 223 220 215 209 203 200 212 219 214 197 175 171 167 163 159 154 169 178 174 158 134 128 129 130 130 130 146 159 161 149 127 116 110 105 98 91 98 112 116 106 86 71 68 64 60 55 58 72 76 68 48 32 33 33 33 32 33 52 63 62 48 26 24 21 17 15 16 36 50 52 42 23 19 19 19 18 17 31 45 48 41 27 22 25 27 28 29 40 57 62 54 35 19 16 12
247 224 218 213 207 200 193 204 216 216 203 181 171 167 163 159 154 162 174 175 164 142 131 132 132 132 132 139 155 161 153 133 113 108 101 95 88 90 107 115 110 93 71 68 64 60 55 51 66 74 71 57 38 35 35 34 33 31 45 60 62 51 31 21 17 14 15 16 29 46 53 47 30 19 19 18 18 17 23 40 49 49 37 24 26 28 29 29 32 50 59 55 39 16 12 12
252 230 216 210 203 197 190 197 212 216 208 188 171 167 163 158 154 154 169 174 167 151 134 134 134 134 133 132 149 158 155 138 112 105 98 91 88 86 100 112 112 99 77 67 63 59 55 50 59 71 73 66 48 38 37 36 34 31 37 54 61 54 35 17 14 13 14 15 21 41 52 51 37 19 19 18 17 16 15 34 50 54 46 29 28 29 29 29 27 42 54 54 41 19 10 11
254 235 213 207 200 193 190 189 206 215 211 195 171 167 162 158 153 149 162 172 170 160 141 137 136 135 134 131 142 154 154 141 117 102 95 90 88 86 93 107 112 104 84 67 63 59 55 50 51 65 75 72 58 40 38 37 34 30 28 47 57 54 39 15 12 13 14 15 16 34 49 53 43 24 18 18 17 16 15 30 49 58 53 38 29 29 29 28 26 32 47 51 43 23 10 11
255 239 214 204 197 192 189 187 199 211 212 200 178 166 162 158 153 149 155 167 173 168 151 139 138 136 134 131 133 147 151 142 121 98 92 90 88 85 85 102 110 107 91 67 63 59 54 50 45 61 75 77 66 46 40 37 34 29 26 38 51 52 41 20 11 12 14 15 16 27 45 53 48 32 18 17 17 16 16 25 47 60 59 46 30 29 28 26 24 22 38 46 43 30 11 11
254 241 218 200 194 191 189 186 191 206 212 204 185 166 162 157 153 148 147 164 175 174 161 140 139 137 134 130 125 139 147 142 124 98 92 89 87 85 82 95 107 108 96 74 62 58 54 49 46 57 74 80 73 55 40 37 33 28 24 28 43 49 42 26 11 12 13 14 16 18 39 51 51 38 18 17 16 15 19 22 43 59 63 53 34 29 27 24 21 18 28 40 42 35 18 10
250 242 222 197 193 191 188 186 183 200 209 207 192 168 161 157 152 148 144 160 175 178 168 149 139 136 133 128 123 129 140 140 126 105 91 89 87 84 82 87 102 108 100 81 62 58 53 49 49 52 71 81 78 63 40 36 32 26 21 18 34 43 42 32 14 12 13 14 15 16 32 48 52 43 25 17 16 18 21 25 38 57 65 59 42 28 25 22 19 15 17 31 41 39 25 10
244 241 225 201 193 190 188 185 183 192 205 208 197 175 161 156 152 147 146 155 173 180 174 157 139 136 132 127 121 119 131 135 127 111 91 89 86 84 81 79 96 105 103 88 64 57 53 51 51 51 66 80 81 69 47 35 30 24 19 15 23 36 42 37 21 11 12 14 15 16 24 43 52 48 32 16 17 20 24 27 32 53 64 62 48 26 23 20 16 11 7 25 39 41 31 13
237 238 226 208 192 190 188 185 182 184 200 206 200 182 160 156 151 149 149 150 169 180 179 164 141 135 130 124 118 112 122 129 129 117 96 88 86 84 81 78 88 101 103 93 71 57 53 54 54 53 61 76 82 74 54 34 28 21 16 12 12 30 41 40 28 11 12 13 14 15 16 36 49 50 38 18 19 23 26 29 30 47 61 64 52 31 21 17 12 8 5 17 35 42 36 20
228 233 229 214 192 190 187 184 182 179 193 204 202 188 165 155 151 152 152 151 164 178 181 169 148 134 128 122 115 108 111 123 129 121 103 88 85 83 81 78 80 96 102 96 78 56 56 56 56 55 54 71 80 76 59 33 25 18 12 8 5 23 38 42 34 16 12 13 14 15 15 29 45 51 43 28 22 25 28 30 31 40 57 63 55 36 18 13 9 4 4 9 29 40 39 27
218 228 230 220 200 189 187 184 181 178 186 199 202 193 172 155 154 154 154 153 158 174 180 173 154 132 125 119 112 105 100 117 127 124 110 87 85 83 80 77 74 89 100 98 84 63 59 59 58 56 54 65 77 77 63 39 23 15 9 4 4 15 34 42 38 23 11 12 13 14 15 21 40 50 48 38 24 27 30 31 31 32 50 60 56 40 16 10 5 3 4 4 22 37 41 33
207 223 230 224 206 189 186 183 181 178 177 193 201 196 178 157 157 157 156 154 152 168 178 175 158 133 123 116 108 101 97 110 123 126 115 95 84 82 80 77 74 81 95 98 89 73 61 61 60 58 55 57 71 75 65 43 19 12 5 3 4 7 27 40 41 30 11 12 13 14 14 15 33 47 53 47 31 29 31 32 31 30 42 55 55 43 20 6 3 3 3 4 14 33 41 37
199 216 227 226 212 191 186 183 180 177 174 186 197 197 184 166 159 159 158 156 153 161 173 174 162 138 120 112 105 99 97 102 118 125 119 102 84 82 79 76 73 73 89 97 96 83 63 63 61 58 55 50 64 71 65 47 20 8 2 3 3 4 20 37 42 35 18 11 12 13 14 14 25 45 56 54 41 31 32 32 31 29 33 47 52 44 24 3 2 2 3 3 6 27 39 40
198 209 223 227 217 198 185 182 180 177 173 178 192 197 191 176 161 160 159 156 153 153 167 171 163 142 116 108 101 99 96 94 112 123 121 108 86 81 78 76 73 70 82 96 100 91 72 64 62 58 54 49 55 65 63 49 24 4 2 2 3 4 12 32 42 39 25 11 12 13 13 14 18 42 58 60 49 32 32 32 30 27 24 39 47 43 27 5 1 2 2 3 3 19 36 41
197 200 217 225 221 204 184 182 179 176 172 170 186 196 197 185 165 162 159 156 152 147 158 166 162 145 118 104 101 98 96 93 104 118 122 112 93 80 78 75 72 69 75 94 102 98 81 65 62 58 53 47 45 56 59 49 27 3 1 1 2 3 4 25 39 41 31 12 11 12 12 13 17 38 57 63 56 39 32 31 28 25 21 28 40 40 29 12 1 1 1 2 2 11 30 40
197 194 210 222 222 210 188 181 178 175 172 168 178 195 200 192 174 162 160 156 151 145 149 159 159 146 122 103 100 97 95 92 96 112 120 116 99 79 77 74 71 68 69 90 103 102 89 66 62 57 51 45 38 47 53 47 30 8 0 0 1 2 3 17 35 41 35 19 10 11 12 15 20 33 54 65 62 46 31 29 26 22 18 17 31 35 32 18 0 0 0 1 2 3 24 38
196 194 202 217 222 214 195 180 177 174 171 167 173 193 202 198 182 163 159 155 150 143 138 150 154 145 125 102 99 96 94 92 89 105 117 117 105 83 76 73 70 69 71 85 101 105 95 74 61 56 49 42 34 36 45 44 34 14 0 0 0 1 2 9 29 40 39 25 9 10 12 17 22 27 50 64 65 52 31 27 24 19 14 9 20 32 34 24 5 0 0 0 1 2 16 33
195 193 194 211 220 217 201 179 176 173 170 168 169 188 202 202 189 167 159 154 148 141 133 140 147 143 130 109 98 95 93 91 89 97 112 117 109 90 75 72 70 72 73 79 98 105 100 81 60 54 47 39 31 24 35 41 37 20 0 0 0 0 1 2 22 37 40 31 13 9 14 19 24 27 44 61 66 57 37 25 21 16 11 5 10 27 33 28 11 0 0 0 0 1 8 28
194 192 190 204 216 218 206 185 175 172 169 171 171 183 199 204 195 174 158 152 145 138 130 129 139 141 134 116 97 95 92 90 88 89 106 115 112 96 74 72 72 74 75 75 92 104 102 87 62 52 44 36 27 18 25 37 37 26 6 0 0 0 0 2 14 32 40 35 20 11 16 21 25 28 37 56 65 60 43 22 18 12 7 1 2 20 31 30 18 0 0 0 0 0 1 21
193 191 189 195 211 217 210 192 175 172 172 173 173 177 195 203 198 180 156 150 142 134 126 117 129 138 136 121 99 94 91 89 87 85 99 112 113 101 80 73 75 76 76 76 86 100 102 91 67 49 41 32 24 15 17 32 37 29 12 0 0 0 0 1 5 26 38 38 27 13 18 23 27 29 30 50 62 61 47 23 14 9 3 0 0 13 28 31 23 5 0 0 0 0 0 13
193 190 188 187 205 215 213 198 175 173 174 175 175 174 189 201 200 185 160 147 139 131 122 114 121 134 136 126 106 93 91 88 86 84 91 106 112 105 88 75 77 78 78 77 79 94 100 93 72 46 38 29 20 13 9 25 34 31 18 0 0 0 0 0 1 19 35 39 35 22 20 24 28 29 30 42 57 60 49 27 11 5 0 0 0 5 22 31 26 11 0 0 0 0 0 4
192 190 187 185 197 211 213 203 183 175 176 177 177 175 183 196 199 188 165 144 136 127 118 112 113 128 135 129 112 92 90 88 85 83 82 100 110 108 97 79 79 79 79 77 74 87 96 93 76 49 34 25 16 12 8 17 30 32 23 6 0 0 0 0 1 11 30 41 42 32 22 26 28 29 30 33 49 56 50 31 7 1 0 0 0 0 16 28 29 17 0 0 0 0 0 0
191 189 187 185 189 205 212 206 192 177 178 179 178 176 175 190 196 190 170 141 132 123 115 111 107 121 132 131 118 96 89 87 85 83 80 92 106 111 105 89 81 81 79 77 74 79 90 91 77 53 30 21 16 11 7 9 24 31 26 12 0 0 0 0 0 2 24 42 48 41 25 27 28 29 28 27 41 51 49 33 9 0 0 0 0 0 8 24 29 22 5 0 0 0 0 0
190 188 186 184 182 198 209 210 201 183 180 180 179 176 172 182 192 189 172 146 129 120 114 110 106 114 127 131 122 103 88 86 84 82 80 84 101 113 111 98 82 82 80 77 73 69 82 87 78 56 27 19 15 11 7 3 17 28 28 18 0 0 0 0 0 0 20 41 51 48 34 27 28 28 27 24 31 44 46 35 13 0 0 0 0 0 0 18 28 25 11 0 0 0 0 1
190 188 185 183 181 191 205 214 209 193 182 181 179 176 171 173 185 186 174 150 125 118 114 109 106 105 121 129 125 110 88 86 83 81 79 77 97 113 116 106 87 82 80 76 71 65 73 80 76 58 31 19 14 10 6 2 9 23 28 22 6 0 0 0 0 2 15 39 53 53 42 27 28 27 25 22 20 35 41 34 20 0 0 0 0 0 0 11 25 27 17 0 0 0 0 4
189 187 185 183 180 182 203 215 215 202 183 182 179 175 170 164 176 181 173 153 124 117 113 109 105 101 114 126 127 115 94 85 83 81 79 78 93 112 119 113 95 82 79 75 69 63 63 72 72 59 38 18 14 9 5 1 1 17 26 25 13 0 0 0 0 5 10 35 52 57 49 30 27 25 23 19 15 24 34 35 25 5 0 0 0 0 0 4 20 27 22 5 0 0 0 6
190 186 184 182 180 179 199 215 219 209 190 182 179 174 168 161 166 174 171 154 131 117 112 108 104 101 106 121 126 119 101 84 82 80 78 81 88 108 120 118 103 82 78 73 67 60 52 63 67 60 44 20 13 9 5 1 0 10 23 27 18 1 0 0 1 7 12 29 50 59 54 37 25 23 20 16 11 13 27 34 29 12 0 0 0 0 0 0 14 26 25 12 0 0 3 8
197 186 184 182 179 182 194 213 221 215 198 182 178 172 166 159 156 166 167 156 138 116 112 108 104 100 98 115 124 122 107 85 82 79 81 83 85 104 119 121 109 87 77 71 65 57 48 52 60 61 49 27 13 8 4 0 0 2 18 26 22 8 0 0 4 9 14 23 46 58 57 43 24 21 17 13 7 2 20 32 31 18 0 0 0 0 0 0 7 22 26 17 1 0 5 11
204 185 183 181 182 184 188 209 221 220 205 181 176 171 164 156 147 156 161 158 144 120 111 107 103 100 96 107 120 123 112 92 81 81 84 86 87 98 115 122 114 94 75 69 62 54 45 41 54 60 53 34 12 8 4 0 0 0 12 24 25 14 0 0 6 11 16 20 40 56 59 48 27 18 14 9 4 1 13 28 32 23 5 0 0 0 0 0 0 17 26 22 11 2 8 12
210 188 183 182 185 187 188 204 219 222 210 188 175 168 161 153 144 145 156 159 148 127 111 107 103 99 96 99 115 122 116 99 81 84 86 88 89 92 110 120 116 99 73 67 59 50 41 34 48 57 55 40 16 7 3 0 0 0 4 21 26 19 6 3 8 13 17 20 32 51 58 51 32 15 11 6 1 0 5 22 31 27 12 0 0 0 0 0 0 11 24 27 20 6 9 14
215 196 182 185 187 189 190 198 215 222 214 194 173 166 158 149 140 136 151 157 151 134 110 106 102 99 96 92 109 119 118 105 87 86 88 90 91 90 104 117 117 103 79 64 56 47 38 34 40 53 55 44 23 7 3 0 0 0 0 15 25 25 16 5 10 15 18 21 24 44 55 52 36 12 7 2 1 0 0 16 28 29 17 0 0 0 0 0 0 4 21 31 28 16 11 15
218 202 185 188 190 191 192 191 209 219 216 199 173 163 155 146 137 132 144 154 153 139 117 106 102 99 95 92 101 115 119 112 98 89 90 92 92 91 96 111 115 106 84 61 52 43 38 33 32 47 53 48 30 6 2 0 0 0 0 9 24 31 25 11 12 16 19 21 22 36 50 51 39 17 4 1 0 0 0 8 24 29 22 4 0 0 0 0 0 0 19 34 35 25 13 16
220 210 194 190 192 193 193 192 202 215 216 203 178 160 151 142 136 132 136 149 153 144 124 106 102 98 95 92 93 110 118 119 107 91 92 93 92 91 88 104 112 106 87 60 49 42 38 33 29 40 50 49 36 13 2 0 0 0 0 2 23 34 33 21 14 17 19 20 20 27 43 49 40 21 1 1 0 0 0 0 18 28 26 11 0 0 0 0 0 0 16 34 40 33 17 16
